X:40
T:Alice MacEachern
R:reel
C:Paul Cranford
O:Cape Breton Island
S:http://www.cranfordpub.com
D:The Lighthouse, Paul Cranford, 1996
B:The Lighthouse Collection, Paul Stewart Cranford
Z:psc, (re-formatted,updated 9/20/04)
N:
H:                                                    copyrights Cranford Publications, SOCAN
L:1/8
Q:333
M:C|
K:D
DA, A,/A,/A, DEFD|EG G/G/G EB,B,E|DA,FA, DEFA|(3(Bcd) AF EDB,E|
DA,FA, DEFD|EG G/G/G EB,B,E|DA,FA, DEFA|(3(Bcd) AF D2||
||AB|dBAB defd|B/B/B ed eBBe|dBAB defb|afed BABc|
dBAB defd|B/B/B ed eBBb|afge fdec|dBAF EGFE|]
